bus-electric.svg

<svg fill="currentColor" viewBox="0 0 24 24"><path d="M18 8H6V4h12m-1.5 10c-.8 0-1.5-.7-1.5-1.5s.7-1.5 1.5-1.5 1.5.7 1.5 1.5-.7 1.5-1.5 1.5m-9 0c-.8 0-1.5-.7-1.5-1.5S6.7 11 7.5 11s1.5.7 1.5 1.5S8.3 14 7.5 14M4 13c0 .9.4 1.7 1 2.2V17c0 .6.4 1 1 1h1c.6 0 1-.4 1-1v-1h8v1c0 .6.4 1 1 1h1c.6 0 1-.4 1-1v-1.8c.6-.5 1-1.3 1-2.2V4c0-3.5-3.6-4-8-4S4 .5 4 4zm3 8h4v-2l6 3h-4v2z"/></svg>

<svg  viewBox="0 0 24 24" fill="currentColor"><path  d="M18 8H6V4H18M16.5 14C15.7 14 15 13.3 15 12.5C15 11.7 15.7 11 16.5 11C17.3 11 18 11.7 18 12.5C18 13.3 17.3 14 16.5 14M7.5 14C6.7 14 6 13.3 6 12.5C6 11.7 6.7 11 7.5 11S9 11.7 9 12.5C9 13.3 8.3 14 7.5 14M4 13C4 13.9 4.4 14.7 5 15.2V17C5 17.6 5.4 18 6 18H7C7.6 18 8 17.6 8 17V16H16V17C16 17.6 16.4 18 17 18H18C18.6 18 19 17.6 19 17V15.2C19.6 14.7 20 13.9 20 13V4C20 .5 16.4 0 12 0S4 .5 4 4V13M7 21H11V19L17 22H13V24L7 21Z"/></svg>
